svg/cellphone_remove.svg

<svg xmlns="http://www.w3.org/2000/svg" viewBox="0 0 24 24"><path d="m22.54 16.88-1.42-1.41L19 17.59l-2.12-2.12-1.41 1.41L17.59 19l-2.12 2.12 1.41 1.42L19 20.41l2.12 2.13 1.42-1.42L20.41 19zm-8 6.12H7a2 2 0 0 1-2-2V3c0-1.11.89-2 2-2h10a2 2 0 0 1 2 2v10c-.7 0-1.37.13-2 .35V5H7v14h6c0 1.54.58 2.94 1.54 4"/></svg>

<svg xmlns="http://www.w3.org/2000/svg" id="mdi-cellphone-remove" viewBox="0 0 24 24"><path d="M22.54 16.88L21.12 15.47L19 17.59L16.88 15.47L15.47 16.88L17.59 19L15.47 21.12L16.88 22.54L19 20.41L21.12 22.54L22.54 21.12L20.41 19L22.54 16.88M14.54 23H7C5.9 23 5 22.11 5 21V3C5 1.89 5.89 1 7 1H17C18.1 1 19 1.89 19 3V13C18.3 13 17.63 13.13 17 13.35V5H7V19H13C13 20.54 13.58 21.94 14.54 23Z" /></svg>
